X:4646
L:1/8
M:4/4
K:D
 A,B, | D2 DD ED DD | F2 A2 A2 Ad | B2 Ad B2 AG | F2 FF ED B,A, | A,B, DD ED DD | F2 A2 A2 Ad | 
 B2 Ad B2 AG | FD EC D2 :|

